dist/img/common/svg/ic_mail-bg.svg

<svg width="46" height="46" viewBox="0 0 46 46" fill="none" xmlns="http://www.w3.org/2000/svg">
<rect width="46" height="46" rx="22.5" fill="#E1306C"/>
<path d="M32.923 16H14.0769C13.4846 16 13 16.4846 13 17.0769V28.923C13 29.5153 13.4846 30 14.0769 30H32.923C33.5153 30 34 29.5153 34 28.923V17.0769C34 16.4846 33.5153 16 32.923 16ZM32.5189 16.8076L24.1195 23.1077C23.9685 23.2226 23.7366 23.2945 23.4999 23.2934C23.2633 23.2945 23.0315 23.2226 22.8804 23.1077L14.481 16.8076H32.5189ZM28.0322 23.5234L32.6091 29.1772C32.6137 29.1828 32.6194 29.1872 32.6242 29.1923H14.3757C14.3806 29.187 14.3862 29.1828 14.3908 29.1772L18.9678 23.5234C19.108 23.35 19.0814 23.0958 18.9077 22.9553C18.7343 22.815 18.4802 22.8416 18.3399 23.015L13.8077 28.6137V17.3124L22.3961 23.7538C22.7189 23.9942 23.1117 24.1 23.4999 24.1011C23.8876 24.1003 24.2807 23.9944 24.6037 23.7538L33.1921 17.3124V28.6136L28.66 23.015C28.5198 22.8417 28.2653 22.815 28.0922 22.9553C27.9186 23.0955 27.8919 23.35 28.0322 23.5234Z" fill="white"/>
</svg>

<svg width="46" height="46" viewBox="0 0 46 46" fill="none" xmlns="http://www.w3.org/2000/svg"><rect width="46" height="46" rx="22.5" fill="#E1306C"/><path d="M32.923 16H14.077A1.08 1.08 0 0013 17.077v11.846A1.08 1.08 0 0014.077 30h18.846A1.08 1.08 0 0034 28.923V17.077A1.08 1.08 0 0032.923 16zm-.404.808l-8.4 6.3a1.05 1.05 0 01-.62.185 1.05 1.05 0 01-.619-.185l-8.399-6.3h18.038zm-4.487 6.715l4.577 5.654.015.015H14.376l.015-.015 4.577-5.654a.404.404 0 00-.628-.508l-4.532 5.599V17.312l8.588 6.442c.323.24.716.346 1.104.347.388 0 .78-.107 1.104-.347l8.588-6.442v11.302l-4.532-5.599a.404.404 0 10-.628.508z" fill="#fff"/></svg>
